src/editor/lib/iconsets/blocks/svg/paragragh.svg

<?xml version="1.0" encoding="UTF-8"?><svg id="a" xmlns="http://www.w3.org/2000/svg" viewBox="0 0 24 24"><path d="M18.19,5.85c0,.51-.39,.9-.88,.9h-.88v11.37c0,.48-.39,.88-.85,.88s-.9-.39-.9-.88V6.75h-1.88v11.37c0,.48-.39,.88-.85,.88s-.9-.39-.9-.88v-4.37h-.69c-2.29,0-4.33-1.67-4.54-3.95-.25-2.61,1.79-4.8,4.33-4.8h7.13c.51,0,.9,.39,.9,.85Z"/></svg>

<svg id="Layer_1" data-name="Layer 1" xmlns="http://www.w3.org/2000/svg" viewBox="0 0 24 24"><path d="M18.19,5.85a.88.88,0,0,1-.88.9h-.87V18.12a.87.87,0,0,1-.85.88.91.91,0,0,1-.9-.88V6.75H12.81V18.12A.87.87,0,0,1,12,19a.91.91,0,0,1-.9-.88V13.75h-.68A4.51,4.51,0,0,1,5.83,9.8,4.37,4.37,0,0,1,10.16,5h7.13A.87.87,0,0,1,18.19,5.85Z"/></svg>
